X: 6
T: The Boys Of Bluehill
R: hornpipe
M: 4/4
L: 1/8
K: Dmaj
FA|: "Bm"BAFA "D"DA FA| "Bm"BA (3Bcd "A" e2 de| "D"fa gf "A7"egfe| "D"dfed "Bm"B2dA|
"Bm"BAFA "D"DAFA| "Bm7"BA (3Bcd "Em"e2 de| "D"fagf "A7"egfe|[1"D"d2 f2 d2 FA:|[2"D"d2 f2 d2 fg|]
|: "D"afdf a2gf| "G"efga b2 ag| "D"fagf "A7"egfe| "D"dfed "Bm"B2 dA|
BA FA "D"DA FA| "Bm7" BA (3Bcd "Em"e2de| "D"fagf "A7"egfe| [1"D"d2 f2 d2 fg:|[2"D"d2 f2 d2 z2|]


Tune 651	Setting 13681

